X: 132
T: MISS SUSAN ELLIOT
C: D. MACINTYRE
R: Reel
B: Glen Collection p.13 #2
Z: 2011 John Chambers <jc:trillian.mit.edu>
M: C|
L: 1/8
V: 1 middle=B clef=treble
V: 2 middle=d clef=bass
%%score {1 | 2}
K: G
%
V: 1
d |\
g2bg afge | dBgB aAAf | g2bg afge | dBcA G/G/G G :|
|: B |\
DGB,D G,B,DG | BdgB A/A/A Af | gdbg afge | dBcA G/G/G G :|
%
V: 2
z |\
G2[b2g2d2] [c'2a2d2][b2g2d2] | [b2g2d2][b2g2d2] [a2f2d2][a2f2d2] |\
G2[b2g2d2] [c'2a2d2][b2g2d2] | [b2g2d2][b2g2e2] [b2g2][bg] :|
|: z |\
G2[g2d2] B2[b2g2d2] | [b2g2d2][b2g2d2] [c'2a2d2][c'2a2d2] |\
[b2g2d2][b2g2d2] [c'2a2d2][b2g2d2] | [b2g2d2][a2f2d2] [b2g2][gdG] :|

